!!!!SEGMENT: pl-wtm--iii-40-856-1--003_wysocki-kasper-napoleon--quatre-krakowiaks-op-1-krakowiak-no-3.krn
!!!cenid: 18xx:4379
!!!COM: Wysocki, Kasper Napoleon
!!!COM-rismID: pe41024789
!!!CDT: 1810/12/06-1850/09/21
!!!CNT: Polish
!!!GTL: Quatre Krakowiaks op. 1
!!!OTL: Krakowiak. No. 3.
!!!OMV: 003
!!!PDT:
!!!AGN: Secular; Krakowiak
!!!SMS-siglum: PL-Wtm
!!!SMS-shelfmark: III.40.856/1
!!!SMS-shelfwork: 001-003 G
!!!SMS-variant:
!!!SMS-altvar:
!!!NIFC-rismSourceID: 1001153066
!!!NIFC-rismChildID: 1001153066
!!!NIFC-islandoraID: pl-wtm:13649
!!!URL-pdf-islandora: https://repozytorium.nifc.pl/islandora/object/pl-wtm:13649/datastream/PDF/view
!!!URL-scan: https://polish.musicsources.pl/pl/lokalizacje/galeria/druki-muzyczne/16672/5 @EN{Scan on Polish Music Sources Website} @PL{Skany w portalu Dziedzictwo Muzyki Polskiej w otwartym dostępie}
!!!ONB-nifc: UWAGA: skan 5.
!!!OMD: Allegro.
!!!AIN: 1 piano
!!!key:
**kern	**kern	**dynam
*part1	*part1	*part1
*staff2	*staff1	*
*	*I"Piano	*
*	*I'pf	*
*	*Ipiano	*
*	*ICklav	*
*	*IGsolo	*
*clefF4	*clefG2	*
*k[b-e-a-d-]	*k[b-e-a-d-]	*
*f:	*f:	*
*M2/4	*M2/4	*
*MM138	*MM138	*
=1	=1	=1
*ped	*	*
[2FFF\	8r<	.
.	8C<'/L	.
.	(8C</	.
.	16BB-</L	.
.	16AA-</JJ	.
=2	=2	=2
2FFF\]	8GG</L	.
*Xped	*	*
.	8FF</J)	.
.	4FF</	.
=3	=3	=3
*ped	*	*
[2FFF\	8r<	.
.	8C<'/L	.
.	(8C</	.
.	16BB-</L	.
.	16AA-</JJ	.
=4	=4	=4
2FFF\]	8GG</L	.
.	8FF</J)	.
.	4FF</	.
*Xped	*	*
=5	=5	=5
*	*^	*
2FFF\ 2FF	8rA<	4ryy	.
!	!	!	!LO:HP:t=cres.:ext=ud
.	8F<'>/L 8A-<	.	<
.	8qB-</	.	.
.	(8A-</	4F<\	.
.	16G</L	.	.
.	16F</JJ)	.	.
=6	=6	=6	=6
2FFF\ 2FF	8rA<	4ryy	.
.	8F<'>/L 8A-<	.	.
.	8qB-</	.	.
.	(8A-</	4F<\	.
.	16G</L	.	.
.	16F</JJ)	.	.
=7	=7	=7	=7
2FFF\ 2FF	8rA<	4ryy	.
.	8F<'>/L 8A-<	.	.
.	8qB-</	.	.
.	(8A-</	4F<\	.
.	16G</L	.	.
.	16F</JJ)	.	.
=8	=8	=8	=8
2FFF\ 2FF	8rA<	4ryy	.
.	8F<'>/L 8A-<	.	.
.	8qB-</	.	.
.	(8A-</	4F<\	.
.	16G</L	.	.
.	16F</JJ)	.	[
*	*v	*v	*
!!LO:LB:g=original
=9	=9	=9
4FF/ 4C 4A-	8r	f
.	8cc'\L 8ccc	.
.	(>8qddd-/	.
4FF/ 4C 4A-	8cc\ 8ccc	.
.	16b-\L 16bb-	.
.	16a-\JJ 16aa-	.
=10	=10	=10
4FF/ 4C 4A-	8g\L 8gg	.
.	8f\J 8ff	.
4FF/ 4C 4A-	4f\) 4ff	.
=11	=11	=11
4FF/ 4BB- 4C 4G	8r	.
.	8c'/L 8cc	.
4FF/ 4BB- 4C 4G	(8c/ 8cc	.
.	16dn/L 16ddn	.
.	16en/JJ 16een	.
=12	=12	=12
4FF/ 4C 4A-	8f\L 8ff	.
.	8g\J 8gg	.
4FF/ 4C 4A-	4a-\) 4aa-	.
=13	=13	=13
4FF/ 4C 4A-	8r	.
.	8cc\L 8ccc	.
.	(>8qddd-/	.
4FF/ 4C 4A-	8cc\ 8ccc	.
.	16b-\L 16bb-	.
.	16a-\JJ 16aa-	.
=14	=14	=14
4FF/ 4C 4A-	8g\L 8gg	.
.	8f\J 8ff	.
4FF/ 4C 4A-	4f\) 4ff	.
=15	=15	=15
4FF/ 4C 4E- 4A-	8r	.
.	8e-'/L 8ee-	.
.	(>8qff/	.
4FF/ 4C 4E- 4A-	8e-/ 8ee-	.
.	16dn/L 16ddn	.
.	16c/JJ 16cc	.
=16	=16	=16
4GG/ 4Dn 4F 4G	8g/L 8gg	.
.	8Bn/J 8bn	.
4C\ 4E- 4G	4c/) 4cc	.
=17	=17	=17
4FF/ 4C 4A-	8r	.
.	8cc'\L 8ccc	.
.	(>8qddd-/	.
4FF/ 4C 4A-	8cc\ 8ccc	.
.	16b-\L 16bb-	.
.	16a-\JJ 16aa-	.
=18	=18	=18
4FF/ 4C 4A-	8g\L 8gg	.
.	8f\J 8ff	.
4FF/ 4C 4A-	4f\) 4ff	.
!!LO:LB:g=original
=19	=19	=19
4FF/ 4BB- 4C 4G	8r	.
.	8c'/L 8cc	.
4FF/ 4BB- 4C 4G	(8c/ 8cc	.
.	16dn/L 16ddn	.
.	16en/JJ 16een	.
=20	=20	=20
4FF/ 4C 4A-	8f\L 8ff	.
.	8g\J 8gg	.
4FF/ 4C 4A-	4a-\) 4aa-	.
=21	=21	=21
4FF/ 4C 4A-	8r	.
.	8cc'\L 8ccc	.
.	(>8qddd-/	.
4FF/ 4C 4A-	8cc\ 8ccc	.
.	16b-\L 16bb-	.
.	16a-\JJ 16aa-	.
=22	=22	=22
4FF/ 4C 4A-	8g\L 8gg	.
.	8f\J 8ff	.
4FF/ 4C 4A-	4f\) 4ff	.
=23	=23	=23
4GG/ 4C 4E- 4A-	8r	.
.	8e-'/L 8ee-	.
.	8qff/	.
4GG/ 4C 4E- 4A-	(8e-/ 8ee-	.
.	16dn/L 16ddn	.
.	16c/JJ 16cc	.
=24	=24	=24
4GG/ 4Dn 4F 4G	8g/L 8gg	.
.	8Bn/J 8bn	.
4C\ 4E- 4G	4c/) 4cc	.
=25||	=25||	=25||
*ped	*	*
4C\ 4G	2r	ff
4C\ 4G	.	.
=26	=26	=26
4C\ 4G	2r	.
4C\ 4G	.	.
*Xped	*	*
=27	=27	=27
*	*^	*
4C^\ 4A- 4Bn	8r	4ryy	p
.	8f'/L 8ddn	.	.
4C\ 4G 4B	8cc/	4f\	.
.	(<16bn/L	.	.
.	16g/JJ)	.	.
=28	=28	=28	=28
4C\ 4G 4c	(8cc/L	4en\	.
.	8g/J)	.	.
4C\ 4G 4c	4cc/	4e\	.
=29	=29	=29	=29
4C^\ 4A- 4Bn	8r	4ryy	.
.	8f'/L 8ddn	.	.
4C\ 4A- 4B	(8cc/	4f\	.
.	16bn/L	.	.
.	16g/JJ)	.	.
=30	=30	=30	=30
4C\ 4G 4c	(8cc/L	4en\	.
.	8g/J	.	.
4C\ 4G 4c	4cc/)	4e\	.
!!LO:LB:g=original
=31	=31	=31	=31
4BB-X^\ 4G- 4An	8r	4ryy	.
.	8e-X'/L 8cc	.	.
4BB-\ 4F 4A	(8cc/	4e-\	.
.	16an/L	.	.
.	16f/JJ)	.	.
=32	=32	=32	=32
4BB-\ 4F 4B-	(8b-/L	4dn\	.
.	8f/J	.	.
4BB-\ 4F 4B-	4b-/)	4d\	.
=33	=33	=33	=33
4BB-^\ 4G- 4An	8r	4ryy	.
.	8e-X'/L 8cc	.	.
4BB-\ 4F 4A	8cc/	4e-\	.
.	(16an/L	.	.
.	16f/JJ)	.	.
=34	=34	=34	=34
4BB-\ 4F 4B-	(8b-/L	4dn\	.
.	8f/J)	.	.
4BB-\ 4F 4B-	4b-/	4d\	.
=35	=35	=35	=35
4EEn'/ 4En	8g#X'/L	4dn\	.
.	8en'/J	.	.
4AAn'/ 4E	8an'/L	4c\	.
.	8e'/J	.	.
=36	=36	=36	=36
4DDn'/ 4Dn	8f#X'/L	4c\	<
.	8dn'/J	.	.
4GG'/ 4D	8g'/L	4Bn\	.
.	8d'/J	.	.
=37	=37	=37	=37
[4CC/ 4C	8en'/L	4B-X\	.
.	8c'/J	.	.
4CC/] 4C	4cc/	4ryy	[ f
=38	=38	=38	=38
4CC/ [4C	8en'/L	4B-\	.
.	8c'/J	.	.
4CC/ 4C]	4cc;\	4ryy	.
*	*v	*v	*
=39||	=39||	=39||
4FF/ 4C 4A-	8r	f
.	8cc'\L 8ccc	.
.	(>8qddd-/	.
4FF/ 4C 4A-	8cc\ 8ccc	.
.	16b-\L 16bb-	.
.	16a-\JJ 16aa-	.
=40	=40	=40
4FF/ 4C 4A-	8g\L 8gg	.
.	8f\J 8ff	.
4FF/ 4C 4A-	4f\) 4ff	.
=41	=41	=41
4FF/ 4BB- 4C 4A-	8r	.
.	8c'>/L 8cc	.
4FF/ 4BB- 4C 4A-	(8c/ 8cc	.
.	16dn/L 16ddn	.
.	16en/JJ 16een	.
!!LO:LB:g=original
=42	=42	=42
4FF/ 4C 4A-	8f\L 8ff	.
.	8g\J 8gg	.
4FF/ 4C 4A-	4a-\) 4aa-	.
=43	=43	=43
4FF/ 4C 4A-	8r	.
.	8cc'\L 8ccc	.
.	(>8qdddn/	.
4FF/ 4C 4A-	8cc\ 8ccc	.
.	16b-\L 16bb-	.
.	16a-\JJ) 16aa-	.
=44	=44	=44
2BB-\ 2D- 2F 2G	8r	.
.	8dd-X\L 8ddd-X	.
.	(>8qeee-/	.
.	8dd-^<\ 8ddd-	.
.	16cc\L 16ccc	.
.	16b-\JJ) 16bb-	.
=45	=45	=45
2BBn\ 2Dn 2F 2A-	8r	.
.	8a-'\L 8aa-	.
.	(>8qbb-/	.
.	8a-^<\ 8aa-	.
.	16g\L 16gg	.
.	16f\JJ) 16ff	.
=46	=46	=46
2BBn\ 2Dn 2F 2A-	8r	.
.	8a-'\L 8aa-	.
.	(>8qbb-/	.
.	8a-\ 8aa-	>
.	16g\L 16gg	.
.	16f\JJ) 16ff	]]
=47	=47	=47
4C\ 4G	8r	f
.	8en'/L 8cc	.
4C\ 4G	(8e/ 8cc	.
.	16f/L 16ddn	.
.	16g/JJ) 16ee-	.
=48	=48	=48
*^	*	*
(8F/L	4C\	(8an\L 8ff	.
8G/J	.	8g\J 8een	.
4An/)	4C\	4f/) 4ddn	.
=49	=49	=49	=49
*	*	*^	*
(8Bn/L	4C\	(8ddn/L	4f\	.
8An/	.	8an/J	.	.
8G/	4C\	8bn/L	4f\	.
8B/J)	.	8g/J)	.	.
=50	=50	=50	=50	=50
4C\ 4c	8En\L	8cc/L	[4en\	.
.	16F\L	16bn/L	.	.
.	16F#X\JJ	16an/JJ	.	.
4C\ 4G 4c	4ryy	4g/	4e\]	.
*v	*v	*	*	*
*	*v	*v	*
=51	=51	=51
4C\ 4G	8r	.
.	8en'/L 8cc	.
4C\ 4G	(8e/ 8cc	.
.	16f/L 16ddn	.
.	16g/JJ) 16een	.
!!LO:LB:g=original
=52	=52	=52
*^	*	*
(8F/L	4C\	(8an\L 8ff	.
8G/J	.	8g\J 8een	.
4An/)	4C\	4f/) 4ddn	.
=53	=53	=53	=53
*	*	*^	*
(8Bn/L	4C\	8ddn/L	4f\	.
8An/	.	8an/J	.	.
!	!	!	!	!LO:HP:a:t=decres:ext=ud
8G/	4C\	8bn/L	4f\	>
8B/J)	.	8g/J	.	.
=54	=54	=54	=54	=54
(8Bn/L	4C\	8ddn/L	4f\	.
8An/	.	8an/J	.	.
8G/	4C\	8bn/L	4f\	.
8B/J)	.	8g/J	.	.
=55	=55	=55	=55	=55
(8Bn/L	4C\	8ddn/L	4f\	.
8An/	.	8an/J	.	.
8G/	4C\	8bn/L	4f\	.
8B/J)	.	8g/J	.	]]
*v	*v	*	*	*
=56	=56	=56	=56
!	!	!	!LO:DY:a
4C'\ 4G	8cc'>/L	4en\	p
.	8g'>/J	.	.
4FF'/ 4F	8an'>/L	4e-\	.
.	8f'>/J	.	.
=57	=57	=57	=57
4BB-'/ 4F	8b-X'>/L	4dn\	.
.	8f'>/J	.	.
4EEn'/ 4En	8g#X'>/L	4d\	.
.	8en'>/J	.	.
=58	=58	=58	=58
4AAn'/ 4En	8an'>/L	4c\	.
.	8en'>/J	.	.
4DDn'/ 4Dn	8f#X'>/L	4c\	.
.	8dn'>/J	.	.
=59	=59	=59	=59
4GG/ 4C	8g'>/L	4B-\	.
.	8dn'>/J	.	.
!	!	!	!LO:HP:a:t=cres:ext=ud
4CC/ [4C	8en'>/L	4B-\	<
.	8c'>/J	.	.
=60	=60	=60	=60
4CC/ 4C_	8en'>/L	4B-\	.
.	8c'>/J	.	.
4CC/ 4C_	8e'>/L	4B-\	.
.	8c'>/J	.	.
=61	=61	=61	=61
4CC/ 4C_	8en'>/L	4B-\	.
.	8c/J	.	[
!	!	!	!LO:DY:a
4CC/ 4C_	4cc\	4ryy	f
=62	=62	=62	=62
4CC/ 4C_	8en/L	4B-\	.
.	8c/J	.	.
4CC;/ 4C]	4cc;\	4ryy	.
*	*v	*v	*
!!LO:PB:g=original
=63||	=63||	=63||
4FF/ 4C 4A-	8r	f
.	8cc'\L 8ccc	.
.	(>8qddd-/	.
4FF/ 4C 4A-	8cc\ 8ccc	.
.	16b-\L 16bb-	.
.	16a-\JJ 16aa-	.
=64	=64	=64
4FF/ 4C 4A-	8g\L 8gg	.
.	8f\J 8ff	.
4FF/ 4C 4A-	4f\) 4ff	.
=65	=65	=65
4FF/ 4BB- 4C 4G	8r	.
.	8c'/L 8cc	.
4FF/ 4BB- 4C 4G	(8c/ 8cc	.
.	16dn/L 16ddn	.
.	16en/JJ 16een	.
=66	=66	=66
4FF/ 4C 4A-	8f\L 8ff	.
.	8g\J 8gg	.
4FF/ 4C 4A-	4a-\) 4aa-	.
=67	=67	=67
4FF/ 4C 4A-	8r	.
.	8cc'\L 8ccc	.
.	(>8qddd-/	.
4FF/ 4C 4A-	8cc\ 8ccc	.
.	16b-\L 16bb-	.
.	16a-\JJ 16aa-	.
=68	=68	=68
4FF/ 4C 4A-	8g\L 8gg	.
.	8f\J 8ff	.
4FF/ 4C 4A-	4f\) 4ff	.
=69	=69	=69
4FF/ 4C 4E- 4G	8r	.
.	8e-'/L 8ee-	.
.	(8qff/	.
4FF/ 4C 4E- 4G	8e-/ 8ee-	.
.	16dn/L 16ddn	.
.	16c/JJ 16cc	.
=70	=70	=70
4GG/ 4Dn 4F 4G	8g/L 8gg	.
.	8Bny/J 8bn	.
4C\ 4E- 4G	4c/) 4cc	.
=71	=71	=71
4FF/ 4C 4A-	8r	.
.	8cc'\L 8ccc	.
.	(>8qdddn/	.
4FF/ 4C 4A-	8cc\ 8ccc	.
.	16b-\L 16bb-	.
.	16a-\JJ 16aa-	.
=72	=72	=72
4FF/ 4C 4A-	8g\L 8gg	.
.	8f\J 8ff	.
4FF/ 4C 4A-	4f\) 4ff	.
=73	=73	=73
4FF/ 4BB- 4C 4G	8r	.
.	8c'/L 8cc	.
4FF/ 4BB- 4C 4G	(8c/ 8cc	.
.	16dn/L 16ddn	.
.	16en/JJ 16een	.
!!LO:LB:g=original
=74	=74	=74
4FF/ 4C 4A-	8f\L 8ff	.
.	8g\J 8gg	.
4FF/ 4C 4A-	4a-\) 4aa-	.
=75	=75	=75
4FF/ 4C 4A-	8r	.
.	8cc'\L 8ccc	.
.	(>8qdddn/	.
4FF/ 4C 4A-	8cc\ 8ccc	.
.	16b-\L 16bb-	.
.	16a-\JJ 16aa-	.
=76	=76	=76
4FF/ 4C 4A-	8g\L 8gg	.
.	8f\J 8ff	.
4FF/ 4C 4A-	4f\) 4ff	.
=77	=77	=77
4GG/ 4C 4E- 4G	8r	.
.	8e-'/L 8ee-	.
.	8qff/	.
4GG/ 4C 4E- 4G	(8e-/ 8ee-	.
.	16dn/L 16ddn	.
.	16c/JJ 16cc	.
=78	=78	=78
4GG/ 4Dn 4F 4G	8g/L 8gg	.
.	8Bn/J 8bn	.
4C\ 4E- 4G	4c/) 4cc	.
=79||	=79||	=79||
4C\ 4E- 4c	2r	ff
4C\ 4E- 4c	.	.
=80	=80	=80
4C\ 4E- 4c	2r	.
4C\ 4E- 4c	.	.
=81	=81	=81
*	*^	*
!	!LO:TX:a:t=scherzando.	!	!
4F\ 4c	(8an/L	2e-\	.
.	8f/	.	.
4F\ 4c	8f/	.	.
.	16g/L	.	.
.	16a/JJ)	.	.
=82	=82	=82	=82
4BB-\ 4B-	(8b-/L	2dn\	.
.	8f/J	.	.
4BB-\ 4B-	4f/)	.	.
=83	=83	=83	=83
4F\ 4c	(8an/L	2e-\	.
.	8f/	.	.
4F\ 4c	8f/	.	.
.	16g/L	.	.
.	16a/JJ)	.	.
=84	=84	=84	=84
4BB-\ 4B-	(8b-/L	2dn\	.
.	8f/J	.	.
4BB-\ 4B-	4f/)	.	.
=85	=85	=85	=85
4En\ 4Bn	(8g#X/L	2dn\	.
.	8en/	.	.
4E\ 4B	8e/	.	.
.	16f#X/L	.	.
.	16g#/JJ)	.	.
!!LO:LB:g=original
=86	=86	=86	=86
4AAn\ 4An	(8an/L	2c\	.
.	8en/J	.	.
4AA\ 4A	4e/)	.	.
=87	=87	=87	=87
4En\ 4Bn	(8g#X/L	2dn\	.
.	8en/	.	.
4E\ 4B	8e/	.	.
.	16f#X/L	.	.
.	16g#/JJ)	.	.
=88	=88	=88	=88
4AAn\ 4An	(8an/L	2c\	.
.	8en/J	.	.
4AA\ 4A	4e/)	.	.
=89	=89	=89	=89
*^	*	*	*
!	!	!LO:TX:a:t=ardito.	!	!
*	*ped	*	*	*
2C/	4CC\	(8en/L	2B-X\	f
.	.	8c/	.	.
.	4CC\	8c/	.	.
.	.	16dn/L	.	.
.	.	16e/JJ)	.	.
*	*Xped	*	*	*
=90	=90	=90	=90	=90
*	*ped	*	*	*
2C/	4CC\	(8f/L	2An\	.
.	.	8f/	.	.
.	.	8qf/	.	.
.	4CC\	8ddn/	.	.
.	.	8cc/J)	.	.
*	*Xped	*	*	*
=91	=91	=91	=91	=91
*	*ped	*	*	*
2C/	4CC\	8r	8ryy	.
.	.	(8b-/L	4.B-\ 4.en	>
.	4CC\	8an/	.	.
.	.	8g/J)	.	]]
*	*Xped	*	*	*
=92	=92	=92	=92	=92
*	*ped	*	*	*
2C/	4CC\	8r	8ryy	.
.	.	(8an/L	4An\ 4c	>
.	4CC\	8g/	.	.
.	.	8f/J)	8ryy	]]
*	*Xped	*	*	*
=93	=93	=93	=93	=93
*	*ped	*	*	*
2C/	4CC\	(8en/L	2B-\	.
.	.	8c/	.	.
.	4CC\	8c/	.	.
.	.	16dn/L	.	.
.	.	16e/JJ)	.	.
*	*Xped	*	*	*
=94	=94	=94	=94	=94
*	*ped	*	*	*
2C/	4CC\	(8f/L	2An\	.
.	.	8f/	.	.
.	4CC\	8ddn/	.	.
.	.	8cc/J)	.	.
*	*Xped	*	*	*
*v	*v	*	*	*
=95	=95	=95	=95
*ped	*	*	*
8CC/ 8C	8a-'/ 8ddn	8ryy	.
[4.c>\ 4.b->	(8ff/L	8a-\L	>
.	8een/	8g\	.
.	8ddn/J	8f\J	.
*Xped	*	*	*
=96	=96	=96	=96
*^	*	*	*
8c>\] 8en>	8ryy	8cc/)	8cc\	]
(8G/L	[<4.C\	8cc/L	4.e-\	.
8F#X/	.	8bn/	.	.
8G/J	.	8cc/J	.	.
*v	*v	*	*	*
=97	=97	=97	=97
*ped	*	*	*
8C\)] 8A-	8bn/	8f\	.
[4.c>\ 4.b->	(8ff/L	8a-\L	>
.	8een/	8g\	.
.	8ddn/J	8f\J	]]
!!LO:LB:g=original
=98	=98	=98	=98
*^	*	*	*
*Xped	*	*	*	*
8c>\] 8en>	8ryy	8cc/)	8cc\	.
(>8G/L	[4.C\	(8cc/L	4.e-\	.
8F#X/	.	8bn/	.	.
8G/J	.	8cc/J	.	.
=99	=99	=99	=99	=99
*	*	*	*ped	*
8C\]) 8A-	8ryy	8bn/)	8f\	.
*clefG2	*	*	*	*
(8a-/L	[4.c\	(8ff/L	4.bn\	>
8g/	.	8een/	.	.
8f/J	.	8ddn/J	.	]
=100	=100	=100	=100	=100
*	*	*	*Xped	*
8en/)	8c\]	8cc/)	8cc\	.
*	*	*	*ped	*
(8a-/L	[4.c\	(8ff/L	4.bn\	.
8g/	.	8een/	.	.
8f/J	.	8ddn/J	.	.
=101	=101	=101	=101	=101
*	*	*	*Xped	*
8en/)	8c\]	8cc/)	8cc\	.
*	*	*	*ped	*
(8a-/L	[4.c\	(8ff/L	4.bn\	.
8g/	.	8een/	.	.
8f/J	.	8ddn/J	.	.
=102	=102	=102	=102	=102
*	*	*	*Xped	*
8en/)	8c\]	8cc/)	8cc\	.
*	*	*	*ped	*
(8a-/L	[4.c\	(8ff/L	4.bn\	>
8g/	.	8een/	.	.
8f/J	.	8ddn/J	.	]]
*v	*v	*	*	*
=103	=103	=103	=103
8c/]) 8e-	8cc/)	8cc\	.
*clefF4	*	*	*
*ped	*	*	*
8r	8cc'\ 8ccc	8ryy	sf
!	!	!	!LO:HP:t=decrescendo.
8CC'/ 8C	8r	4ryy	>
8r	8cc'\	.	.
*	*v	*v	*
=104	=104	=104
8c>'\ 8g>	8r	.
8r	8cc'\ 8ccc	sf
8CC'/ 8C	8r	.
8r	8cc'\	.
=105	=105	=105
8c>'\ 8g>	8r	.
8r	8cc'\ 8ccc	sf
8CC'/ 8C	8r	.
8r	8cc'\	.
=106	=106	=106
8c>'\ 8g>	8r	.
8r	8cc'\	.
8CC'/ 8C	8r	.
*Xped	*	*
8r	8cc'\	.
=107	=107	=107
*^	*	*
*	*ped	*	*
[2c/	8C\L	8r	p
.	8C\	(8f/L 8ddn	.
.	8C\	8g/ 8b-	.
.	8C\J	8en/J 8cc	.
=108	=108	=108	=108
2c/]	8C\L	8f/L 8an	.
.	8C\	8dn/	.
.	8C\	8en/ 8g	.
.	8C\J	8c/J) 8cc	.
*	*Xped	*	*
*v	*v	*	*
=109	=109	=109
2r;	2r;	.
!!LO:LB:g=original
=110||	=110||	=110||
4FF/ 4C 4A-	8r	f
.	8cc'\L 8ccc	.
.	(>8qddd-/	.
4FF/ 4C 4A-	8cc\ 8ccc	.
.	16b-\L 16bb-	.
.	16a-\JJ 16aa-	.
=111	=111	=111
4FF/ 4C 4A-	8g\L 8gg	.
.	8f\J 8ff	.
4FF/ 4C 4A-	4f\) 4ff	.
=112	=112	=112
4FF/ 4BB- 4C 4G	8r	.
.	8c'/L 8cc	.
4FF/ 4BB- 4C 4G	(8c/ 8cc	.
.	16dn/L 16ddn	.
.	16en/JJ 16een	.
=113	=113	=113
4FF/ 4C 4A-	8f\L 8ff	.
.	8g\J 8gg	.
4FF/ 4C 4A-	4a-\) 4aa-	.
=114	=114	=114
4FF/ 4C 4A-	8r	.
.	8cc'\L 8ccc	.
.	(>8qddd-/	.
4FF/ 4C 4A-	8cc\ 8ccc	.
.	16b-\L 16bb-	.
.	16a-\JJ 16aa-	.
=115	=115	=115
4FF/ 4C 4A-	8g\L 8gg	.
.	8f\J 8ff	.
4FF/ 4C 4A-	4f\) 4ff	.
=116	=116	=116
.	8qa-/ 8qaa-	.
2BB-\ 2D- 2F 2G	(8g\L 8gg	>
.	8f\J 8ff	]
.	4f\) 4ff	.
=117	=117	=117
.	8qa-/ 8qaa-	.
2BBn\ 2Dn 2F 2A-	(8g\L 8gg	.
.	8f\J 8ff	.
.	4f\) 4ff	.
=118	=118	=118
4C\ 4F 4A-	8r	.
.	(8cc\L 8ccc	.
.	8qdddn/	.
4r	8cc\ 8ccc	.
.	16b-\L 16bb-	.
.	16a-\JJ) 16aa-	.
=119	=119	=119
2C\ 2E- 2Gn 2B-	(8b-\L 8bb-	.
.	8dd-\) 8ddd-	.
.	8qeee-/	.
.	(8dd-\ 8ddd-	>
.	8cc\J) 8ccc	]
=120	=120	=120
*	*^	*
4FF/ 4C 4F	8r	4ryy	.
.	8f\ 8ff	.	p
*	*	*ped	*
4FF/ 4BB- 4D- 4F	4f/ [>4ff	(>8dd-\L	.
.	.	16cc\L	.
.	.	16b-\JJ	.
=121	=121	=121	=121
*	*	*Xped	*
4FF/ 4C 4F	8ff'>/L]	8a-\)	.
.	8f'>/J 8ff	8ryy	.
*	*	*ped	*
4FF/ 4BB- 4D- 4F	4f/ [>4ff	(>8dd-\L	.
.	.	16cc\L	.
.	.	16b-\JJ	.
!!LO:LB:g=original
=122	=122	=122	=122
*	*	*Xped	*
4FF/ 4C 4F	8ff/]	8a-\)	.
.	8a-'/L 8cc	8ryy	.
.	8qdd-/	.	.
4FF/ 4C 4F	(8a-/ 8cc	4ryy	.
.	16g/L 16b-	.	.
.	16f/JJ 16a-	.	.
*	*v	*v	*
=123	=123	=123
4FF/ 4BB- 4C 4G	8en/L) 8g	.
.	8g'/ 8b-	.
.	8qcc/	.
4FF/ 4BB- 4C 4G	(8g/ 8b-	.
.	16f/L 16a-	.
.	16e/JJ 16g	.
=124	=124	=124
*	*^	*
*ped	*	*	*
4FF/ 4C 4A-	8f'/L)	4ryy	.
.	8F<'/J 8f	.	.
4FFF/ 4FF	4F</ [>4f	(>8d-\L	.
.	.	16c\L	.
.	.	16B-\JJ	.
*Xped	*	*	*
=125	=125	=125	=125
*ped	*	*	*
4FFF/ 4FF	8f/L]	8A-'\)	.
.	8F/J 8f	8ryy	.
4FFF/ 4FF	4F/ 4f	(>8d-\L	.
.	.	16c\L	.
.	.	16B-\JJ	.
*Xped	*	*	*
=126	=126	=126	=126
4FFF/ 4FF	8f'/	8A-\)	.
.	8A-<'</L 8c<	8ryy	.
.	8qd-</	.	.
4CC/	(<8A-</ 8c<	4ryy	.
.	16G</L 16B-<	.	.
.	16F</JJ 16A-<	.	.
*	*v	*v	*
=127	=127	=127
4CC/	8E-<'/L) 8Gn<	.
.	8G<'/ 8B-<	.
.	8qc</	.
4CC/	(<8G</ 8B-<	.
.	16F</L 16A-<	.
.	16E-</JJ 16G<	.
=128	=128	=128
*	*^	*
!	!	!	!LO:HP:t=crescen___do.:ext=ud
4FFF/ 4FF	8F<'/)	4ryy	<
.	8F<'/L 8A-<	.	.
.	8qB-</	.	.
4FFF/ 4FF	(<8A-</	4F<\	.
.	16G</L	.	.
.	16F</JJ)	.	.
=129	=129	=129	=129
4FFF/ 4FF	8r	4ryy	.
.	8f'/L 8a-	.	.
.	8qb-/	.	.
4FFF/ 4FF	(8a-/	4f\	.
.	16g/L	.	.
.	16f/JJ)	.	.
=130	=130	=130	=130
4FFF/ 4FF	8r	4ryy	.
.	8ff'>/L 8aa-	.	.
.	8qbb-/	.	.
4FFF/ 4FF	(8aa-/	4ff\	.
.	16gg/L	.	.
.	16ff/JJ)	.	.
*	*v	*v	*
=131	=131	=131
*	*8va	*
*	*^	*
4FFF/ 4FF	8raa	4ryy	.
.	8fff/L 8aaa-	.	.
.	(8qbbb-/	.	.
4FFF/ 4FF	8aaa-/	4fff\	.
.	16ggg/L	.	[
.	16fff/JJ)	.	.
*	*v	*v	*
=132	=132	=132
4FFF/ 4FF	4fff\ 4aaa- 4ffff	ff
*	*X8va	*
4r	4r	.
==	==	==
*-	*-	*-
!!!system-decoration: {(s1,s2)}
!!!RDF**kern: < = below
!!!RDF**kern: > = above
!!!ENC: Berenika Jozajtis
!!!END: 2022-12-15
!!!ENC: Marta Chmielewska
!!!END: 2023-07-14
!!!YEC: Copyright 2022 Narodowy Instytut Fryderyka Chopina (https://polishscores.org)
!!!YEM: License CC-BY-4.0 (https://creativecommons.org/licenses/by/4.0)
